X:1
T:Title
%%score ( 1 2 ) { 3 | 4 }
L:1/8
Q:1/4=100
M:4/4
K:G
V:1 treble nm="Bright Piano"
V:2 treble 
V:3 bass nm="Bright Piano"
V:4 bass 
V:1
 [DB]4 [FA]4 | G4 z4 | [Ge]2 [Gd]2 [Dc]2 [DB]2 | [^CB]3 [CA] [DA]2 z2 | [FB]2 [FB]2 Bc [GB]2 | %5
 [Ge]2 [Ge]2 ed [Gd]2 | [Fd]2 [Fc]2 [Fc]2 [GB]2 | ABcA [DG]2 [DF]2 | [DB]3 [DA] [DG]2 [DB]2 | %9
 [Fc]2 [GB]2 [FA]2 z2 | [GB]2 [=Fd]2 [Ed]2 cA | [DG]4 [DF]4 | [DG]4 z4 | c2 B2 c2 d2 | [DB]4 z4 | %15
 [CA]2 [B,G]2 [CA]2 [DB]2 | [B,G]4 z4 |] %17
V:2
 x8 | x8 | x8 | x8 | z4 G2 z2 | z4 G2 z2 | x8 | F2 F2 z4 | x8 | x8 | z4 z2 E2 | x8 | x8 | D4 D4 | %14
 x8 | x8 | x8 |] %17
V:3
 G,4 C4 | B,4 z4 | C2 B,2 A,2 G,2 | G,3 G, F,2 z2 | A,2 A,2 G,2 G,2 | C2 C2 B,2 B,2 | %6
 A,2 A,2 A,2 B,2 | CB,A,C B,2 A,2 | G,3 F, G,2 G,2 | A,2 B,2 C2 z2 | B,2 G,2 G,2 A,C | B,4 C4 | %12
 B,4 z4 | A,2 ^G,2 A,2 B,2 | G,4 z4 | F,4 F,4 | G,4 z4 |] %17
V:4
 z4 D,4 | G,4 z4 | C,2 D,2 F,,2 G,,2 | A,,3 A,, D,2 z2 | ^D,2 D,2 E,2 E,2 | C,2 C,2 D,2 D,2 | %6
 D,2 D,2 D,2 D,2 | D,2 D,2 D,2 D,2 | G,,3 C, B,,2 G,,2 | D,2 D,2 D,2 z2 | G,2 B,,2 C,2 C,2 | %11
 D,4 D,4 | G,4 z4 | F,4 F,4 | z8 | D,4 D,4 | G,,4 z4 |] %17

